exampleSite/static/images/illustrations/leaf-cyan.svg

<svg width="169" height="96" viewBox="0 0 169 96" fill="none" xmlns="http://www.w3.org/2000/svg">
<g clip-path="url(#clip0)">
<path d="M137.01 87.096C137.01 87.096 161.88 101.473 165.873 93.69C184.59 57.202 113.959 38.896 95.0151 34.759C71.4291 29.608 55.2841 23.568 39.2981 6.93701C23.3121 -9.69299 -8.96888 6.78201 2.36012 22.791C13.6901 38.8 18.3461 28.075 34.6421 39.888C50.7821 51.545 44.7401 74.981 77.0121 84.03C99.5071 90.337 137.011 87.096 137.011 87.096H137.01Z" fill="#2DDAD6"/>
<path d="M16.9271 3.77724C12.2751 3.73024 7.95507 4.90324 4.57107 6.63324C-0.0659304 10.9752 -1.80093 16.9102 2.36007 22.7902C5.46007 27.1702 8.06007 29.5422 10.5351 30.9282C19.5671 30.6012 31.5281 30.2732 39.4881 44.4282C49.8851 56.8402 48.5181 76.0382 77.0121 84.0282C78.6421 84.4852 80.3581 84.8882 82.1251 85.2502C87.8291 79.9662 104.041 68.1002 128.849 75.4802C160.199 84.8052 169.046 97.0842 167.184 80.9202C166.139 71.8562 156.211 59.9582 143.177 51.3632C134.812 46.9532 125.537 43.4172 117.111 40.7132C114.586 40.3232 112.074 40.1392 109.603 40.1992C83.9951 40.8202 53.5761 40.9752 41.9361 20.3032C35.0251 8.03024 25.4321 3.86624 16.9271 3.77724Z" fill="#3EF8F4"/>
<path d="M137.01 87.096C137.01 87.096 161.88 101.473 165.873 93.69C184.59 57.202 113.959 38.896 95.0151 34.759C71.4291 29.608 55.2841 23.568 39.2981 6.93701C23.3121 -9.69299 -8.96888 6.78201 2.36012 22.791C13.6901 38.8 18.3461 28.075 34.6421 39.888C50.7821 51.545 44.7401 74.981 77.0121 84.03C99.5071 90.337 137.011 87.096 137.011 87.096H137.01Z" fill="#AFBC00"/>
<path d="M16.9271 3.77724C12.2751 3.73024 7.95507 4.90324 4.57107 6.63324C-0.0659304 10.9752 -1.80093 16.9102 2.36007 22.7902C5.46007 27.1702 8.06007 29.5422 10.5351 30.9282C19.5671 30.6012 31.5281 30.2732 39.4881 44.4282C49.8851 56.8402 48.5181 76.0382 77.0121 84.0282C78.6421 84.4852 80.3581 84.8882 82.1251 85.2502C87.8291 79.9662 104.041 68.1002 128.849 75.4802C160.199 84.8052 169.046 97.0842 167.184 80.9202C166.139 71.8562 156.211 59.9582 143.177 51.3632C134.812 46.9532 125.537 43.4172 117.111 40.7132C114.586 40.3232 112.074 40.1392 109.603 40.1992C83.9951 40.8202 53.5761 40.9752 41.9361 20.3032C35.0251 8.03024 25.4321 3.86624 16.9271 3.77724Z" fill="#C5D30A"/>
</g>
<defs>
<clipPath id="clip0">
<path d="M0 0H169V96H0V0Z" fill="white"/>
</clipPath>
</defs>
</svg>

<svg xmlns="http://www.w3.org/2000/svg" width="169" height="96"><path d="M137.01 87.096s24.87 14.377 28.863 6.594c18.717-36.488-51.914-54.794-70.858-58.931-23.586-5.151-39.731-11.191-55.717-27.822C23.312-9.693-8.969 6.782 2.36 22.791 13.69 38.8 18.346 28.075 34.642 39.888c16.14 11.657 10.098 35.093 42.37 44.142 22.495 6.307 59.999 3.066 59.999 3.066z" fill="#2ddad6"/><path d="M16.927 3.777C12.275 3.73 7.955 4.903 4.571 6.633-.066 10.975-1.801 16.91 2.36 22.79c3.1 4.38 5.7 6.752 8.175 8.138 9.032-.327 20.993-.655 28.953 13.5 10.397 12.412 9.03 31.61 37.524 39.6 1.63.457 3.346.86 5.113 1.222 5.704-5.284 21.916-17.15 46.724-9.77 31.35 9.325 40.197 21.604 38.335 5.44-1.045-9.064-10.973-20.962-24.007-29.557-8.365-4.41-17.64-7.946-26.066-10.65-2.525-.39-5.037-.574-7.508-.514-25.608.621-56.027.776-67.667-19.896C35.025 8.03 25.432 3.866 16.927 3.777z" fill="#3ef8f4"/></svg>
